X:1521
L:1/8
M:4/4
K:C
 C2 C2 [CE]2 EF | G^FGE C2 C2 | B,2 D2 DFED | CDEF GFED | C2 C2 [CE]2 EF | G^FGE C2 C2 | 
 B,2 D2 DFED | C2 c2 c4 || e2 e2 c2 cA | G2 GF E2 E2 | g2 g2 B2 B2 | dcBA G2 G2 | e2 e2 c2 cA | 
 G2 GF E2 E2 | g^f g2 B2 B2 | dccB [Ec]2- [Ec]2 ||

